X:617
L:1/8
Q:1/4=84
M:2/4
K:C
"^A"{GAB} cc cc | B/c/d/B/ c2 |{GAB} [ec][ec] [ec][ec] | [dB]/[ec]/[fd]/[dB]/ [ec]2 |{c} ee f>e | 
 dd/f/ e>d | cc dd | B/c/d/B/ c2 | ee f>e | dd/f/ e>d | cc dd | B/c/d/B/ c2 :|

